assets/icons/qvision/speaker_phone.svg

<svg xmlns="http://www.w3.org/2000/svg" height="24" viewBox="0 0 24 24" width="24"><path d="M0 0h24v24H0V0zm0 0h24v24H0V0z" fill="none"/><path d="M7 7.07L8.43 8.5c.91-.91 2.18-1.48 3.57-1.48s2.66.57 3.57 1.48L17 7.07C15.72 5.79 13.95 5 12 5s-3.72.79-5 2.07zM12 1C8.98 1 6.24 2.23 4.25 4.21l1.41 1.41C7.28 4 9.53 3 12 3s4.72 1 6.34 2.62l1.41-1.41C17.76 2.23 15.02 1 12 1zm2.86 9.01L9.14 10C8.51 10 8 10.51 8 11.14v9.71c0 .63.51 1.14 1.14 1.14h5.71c.63 0 1.14-.51 1.14-1.14v-9.71c.01-.63-.5-1.13-1.13-1.13zM15 20H9v-8h6v8z"/></svg>

<svg width="24" height="24" viewBox="0 0 24 24" fill="none" xmlns="http://www.w3.org/2000/svg">
<g clip-path="url(#clip0_147_2011)">
<path d="M7 7.07L8.43 8.5C9.34 7.59 10.61 7.02 12 7.02C13.39 7.02 14.66 7.59 15.57 8.5L17 7.07C15.72 5.79 13.95 5 12 5C10.05 5 8.28 5.79 7 7.07ZM12 1C8.98 1 6.24 2.23 4.25 4.21L5.66 5.62C7.28 4 9.53 3 12 3C14.47 3 16.72 4 18.34 5.62L19.75 4.21C17.76 2.23 15.02 1 12 1ZM14.86 10.01L9.14 10C8.51 10 8 10.51 8 11.14V20.85C8 21.48 8.51 21.99 9.14 21.99H14.85C15.48 21.99 15.99 21.48 15.99 20.85V11.14C16 10.51 15.49 10.01 14.86 10.01ZM15 20H9V12H15V20Z" fill="#323232"/>
</g>
<defs>
<clipPath id="clip0_147_2011">
<rect width="24" height="24" fill="white"/>
</clipPath>
</defs>
</svg>
